!!!COM:	Anonymous
!!!OTL:	Maintenons nous / Resveille, qui dort
!!!AGN:	Song; Chanson
!!!SCT:	Ano3026
!!!SCA:	Ano3026
!!!SMS:	Escorial B
!!!folio:	
!!!voices:	4
**kern	**kern	**kern	**kern
*staff4	*staff3	*staff2	*staff1
*Ivox	*Ivox	*Ivox	*Ivox
*I"Contratenor	*I"Tenor2	*I"Tenor1	*I"Superius
*I'Ct	*I'T2	*I'T1	*I'S
*clefGv2	*clefGv2	*clefGv2	*clefG2
*k[]	*k[]	*k[]	*k[]
*M2/1	*M2/1	*M2/1	*M2/1
*met(C|)	*met(C|)	*met(C|)	*met(C|)
=1-	=1-	=1-	=1-
!	!	!LO:TX:Y=32:t=Resveille, qui dort...	!LO:TX:Y=32:t=Maintenons nous...
0d	0r	1G	[0g
.	.	1G	.
=2	=2	=2	=2
1G	0r	1B	1g]
1A	.	1c	1e
=3	=3	=3	=3
0D	0r	[0d	1.f
.	.	.	2g
=4	=4	=4	=4
1.F	0r	1d]	0a
.	.	1c	.
2A	.	.	.
=5	=5	=5	=5
1G	0r	1d	1b-
1F	.	1f	1a
=6	=6	=6	=6
0c	0r	0e	1.g
.	.	.	2e
=7	=7	=7	=7
1r	0r	0d	0f
[1d	.	.	.
=8	=8	=8	=8
1d]	1G	0r	1r
1B	1G	.	[1g
=9	=9	=9	=9
1G	1B	0r	1g]
1r	1c	.	1a
=10	=10	=10	=10
0G	[0d	0r	1.b
.	.	.	2cc
=11	=11	=11	=11
1D	1d]	0r	1dd
1A	1c	.	[1ee
=12	=12	=12	=12
1G	1d	0r	2ee]
.	.	.	2dd
1D	1f	.	[1dd
=13	=13	=13	=13
0A	0e	0r	2dd]
.	.	.	2cc#i
.	.	.	2cc#i
.	.	.	2b
=14	=14	=14	=14
0D	0d	0r	0dd
=15	=15	=15	=15
0d	0r	0B	0r
=16	=16	=16	=16
0e	0r	0c	0a
=17	=17	=17	=17
[0d	0r	1G	1b-i
.	.	1F	1a
=18	=18	=18	=18
0d]	0r	[0G	1g
.	.	.	2f
.	.	.	2e
=19	=19	=19	=19
1r	0r	1G]	1d
1f	.	1F	[1a
=20	=20	=20	=20
1d	0r	1G	2a]
.	.	.	2g
[1e	.	1G	[1g
=21	=21	=21	=21
1e]	0r	0A	1g]
1f	.	.	1cc
=22	=22	=22	=22
0g	0r	0G	1b
.	.	.	[1dd
=23	=23	=23	=23
0d	0B	0r	1dd]
.	.	.	[1g
=24	=24	=24	=24
1r	0c	0r	1g]
1c	.	.	1e
=25	=25	=25	=25
2d	1G	0r	0d
2e	.	.	.
1f	1F	.	.
=26	=26	=26	=26
0d	0G	0r	1r
.	.	.	[1g
=27	=27	=27	=27
1B	1G	0r	1g]
1A	1F	.	1a
=28	=28	=28	=28
2d	1G	0r	1b
2e	.	.	.
[1d	1G	.	[1g
=29	=29	=29	=29
1d]	0A	0r	2g]
.	.	.	2f#i
1c	.	.	2f#i
.	.	.	2e
=30	=30	=30	=30
0d	0G	0r	0g
=31	=31	=31	=31
[0A	0r	0c	0r
=32	=32	=32	=32
0A]	0r	0c	0e
=33	=33	=33	=33
0D	0r	0d	1f
.	.	.	2e
.	.	.	2d
=34	=34	=34	=34
[0A	0r	0e	1.c
.	.	.	2d
=35	=35	=35	=35
0A]	0r	1c	0e
.	.	1c	.
=36	=36	=36	=36
1r	0r	1f	1d
1F	.	1f	1a
=37	=37	=37	=37
1G	0r	1e	1g
1A	.	1c	1e
=38	=38	=38	=38
1D	0r	0d	1.f
1D	.	.	.
.	.	.	2g
=39	=39	=39	=39
1F	0r	1c	0a
1A	.	1c	.
=40	=40	=40	=40
2G	0r	1d	1b
2D	.	.	.
1F	.	1c	1a
=41	=41	=41	=41
0G	0r	0B	0dd
=42	=42	=42	=42
0c	0r	0A	1cc
.	.	.	2b
.	.	.	2a
=43	=43	=43	=43
0r	0c	0r	[0g
=44	=44	=44	=44
1C	0c	0r	1g]
[1F	.	.	[1a
=45	=45	=45	=45
2F]	0d	0r	1a]
2D	.	.	.
1G	.	.	[1b
=46	=46	=46	=46
0E	0e	0r	1b]
.	.	.	[1g
=47	=47	=47	=47
1r	1c	0r	1g]
1A	1c	.	[1cc
=48	=48	=48	=48
0F	1f	0r	1cc]
.	1f	.	1a
=49	=49	=49	=49
0C	1e	0r	1g
.	1c	.	[1cc
=50	=50	=50	=50
0G	0d	0r	1cc]
.	.	.	1b
=51	=51	=51	=51
0C	1c	0r	1.cc
.	1c	.	.
.	.	.	2a
=52	=52	=52	=52
1G	1d	0r	1b-i
2A	1c	.	[1a
2F	.	.	.
=53	=53	=53	=53
0G	0B-i	0r	2a]
.	.	.	2g
.	.	.	2g
.	.	.	2f
=54	=54	=54	=54
0D	0A	0r	0a
=55	=55	=55	=55
1r	0r	1G	1dd
[1d	.	1G	1dd
=56	=56	=56	=56
0d_	0r	1G	1b
.	.	1G	1b
=57	=57	=57	=57
1d]	0r	1G	1g
[1B	.	1G	1g
=58	=58	=58	=58
1B]	0r	1G	0d
1A	.	1D	.
=59	=59	=59	=59
0B	0r	1G	1e
.	.	1G	[1d
=60	=60	=60	=60
1G	0r	1G	2d]
.	.	.	2e
1D	.	1A	1f
=61	=61	=61	=61
0d	0r	0B	1.g
.	.	.	2a
=62	=62	=62	=62
0r	0r	0G	0b
=63	=63	=63	=63
0r	1G	0r	0g
.	1G	.	.
=64	=64	=64	=64
[0g	1G	0r	0d
.	1G	.	.
=65	=65	=65	=65
0g]	1G	0r	1e
.	1G	.	1d
=66	=66	=66	=66
1e	1G	0r	1g
1f	1D	.	1a
=67	=67	=67	=67
1d	1G	0r	1b
[1e	1G	.	[1g
=68	=68	=68	=68
1e]	1G	0r	1g]
1c	1A	.	1f#i
=69	=69	=69	=69
[0d	0B	0r	1g
.	.	.	[1dd
=70	=70	=70	=70
0d]	0G	0r	2dd]
.	.	.	2cc
.	.	.	[1b
=71	=71	=71	=71
1G	0r	1d	2b]
.	.	.	2a
[1D	.	1d	[1a
=72	=72	=72	=72
1D]	0r	1B	2a]
.	.	.	2g
1r	.	1A	1cc
=73	=73	=73	=73
0d	0r	0G	1.b
.	.	.	2g
=74	=74	=74	=74
1G	1d	0r	1b
[1d	1d	.	[1a
=75	=75	=75	=75
1d]	1B	0r	2a]
.	.	.	2g
1c	1A	.	2f#i
.	.	.	2e
=76	=76	=76	=76
1d	0G	0r	0g
1B	.	.	.
=77	=77	=77	=77
1c	0r	1A	1e
[1d	.	[1B	1d
=78	=78	=78	=78
1d]	1r	1B]	0g
[1e	1c	1r	.
=79	=79	=79	=79
1e]	0A	0r	1a
1c	.	.	2e
.	.	.	2f
=80	=80	=80	=80
0G	0r	1B	0d
.	.	[1G	.
=81	=81	=81	=81
0d	1r	1G]	1.g
.	1G	1r	.
.	.	.	2e
=82	=82	=82	=82
1r	1d	1r	2f
.	.	.	2g
1f	1d	1d	[1a
=83	=83	=83	=83
1d	1G	1B	2a]
.	.	.	2g
[1d	1B	1G	[1g
=84	=84	=84	=84
1d]	0d	0A	2g]
.	.	.	2f#i
1d	.	.	2f#i
.	.	.	2e
=85	=85	=85	=85
0dl	0Gl	0Gl	0gl
==	==	==	==
*-	*-	*-	*-
!!!RDF**kern: l=long note in original notation
!!!RDF**kern: i=editorial accidental
!!!ENC:	Chris Gage 03-05-2015
!!!END:	2015/03/14/
!!!EED:	Jesse Rodin
!!!EEV:	2016/02/22/
!!!ONB:	Translated from MusicXML and edited on 2016/02/22/ by Craig Sapp
!!muse2ps: C^@{COM}\n@{SMS} @{folio}^v85,85,85,150Q16
